!!!!SEGMENT: pl-kk--kk-i-2--024_isaac-heinrich--puer-natus-est-nobis-et-filius-datus-est-nobis.krn
!!!cenid: 16xx:1642
!!!COM: Isaac, Heinrich
!!!COM-rismID:
!!!CDT: ~1450-1517
!!!CNT: French-Flemish
!!!OTL: [Puer natus est nobis] Et filius datus est nobis
!!!PDT:
!!!AGN: Sacred
!!!SMS-siglum: PL-Kk
!!!SMS-shelfmark: Kk.I.2
!!!SMS-shelfwork: 024 W
!!!NIFC-rismSourceID: 300258040
!!!NIFC-islandoraID: pl-kk:750
!!!URL-pdf-islandora: https://repozytorium.nifc.pl/islandora/object/pl-kk%3A750/datastream/PDF/view
!!!URL-scan: https://polish.musicsources.pl/pl/lokalizacje/galeria/rekopisy/5828 @EN{Scan on Polish Music Herritage in Open Access Website} @PL{Skany w portalu Dziedzictwo Muzyki Polskiej w otwartym dostępie}
!!!ONB-nifc: skany: C: 0052; A: 0154; T: 0256-0257; B: 0354;
!!!AIN: 1 alto 1 bass 1 soprn 1 tenor
!!!key: G:mix
**kern	**text	**kern	**text	**kern	**text	**kern	**text
*part4	*part4	*part3	*part3	*part2	*part2	*part1	*part1
*staff4	*staff4	*staff3	*staff3	*staff2	*staff2	*staff1	*staff1
*I"BASVS	*	*I"TENOR	*	*I"ALTVS	*	*I"DISCANTVS	*
*I'B	*	*I'T	*	*I'A	*	*I'S	*
*Ibass	*	*Itenor	*	*Ialto	*	*Isoprn	*
*ICvox	*	*ICvox	*	*ICvox	*	*ICvox	*
*clefF3	*	*clefC3	*	*clefC3	*	*clefC1	*
*k[]	*	*k[]	*	*k[]	*	*k[]	*
*G:mix	*	*G:mix	*	*G:mix	*	*G:mix	*
*M2/1	*	*M2/1	*	*M2/1	*	*M2/1	*
*met(C|)	*	*met(C|)	*	*met(C|)	*	*met(C|)	*
*all\right	*	*all\right	*	*all\right	*	*all\right	*
=1-	=1-	=1-	=1-	=1-	=1-	=1-	=1-
00r	.	0r	.	00r	.	1g	Et
*	*	*	*	*	*	*lig	*
.	.	.	.	.	.	1dd	fi-
=2-	=2-	=2-	=2-	=2-	=2-	=2-	=2-
.	.	1c	Et	.	.	1ee	.
*	*	*lig	*	*	*	*Xlig	*
.	.	1g	fi-	.	.	1dd	.
=3-	=3-	=3-	=3-	=3-	=3-	=3-	=3-
00r	.	1a	.	00r	.	2cc/	-li-
.	.	.	.	.	.	4b/	.
.	.	.	.	.	.	4a/	.
*	*	*Xlig	*	*	*	*	*
.	.	1g	.	.	.	1b	-us
=4-	=4-	=4-	=4-	=4-	=4-	=4-	=4-
.	.	2f/	-li-	.	.	1a	.
.	.	4e/	.	.	.	.	.
.	.	4d/	.	.	.	.	.
.	.	1e	.	.	.	2r	.
.	.	.	.	.	.	2cc/	da-
=5-	=5-	=5-	=5-	=5-	=5-	=5-	=5-
00r	.	1d	-us	0r	.	1dd	-tus
.	.	2r	.	.	.	1cc	.
*	*	*2\right	*	*	*	*	*
.	.	2f\	da-	.	.	.	.
=6-	=6-	=6-	=6-	=6-	=6-	=6-	=6-
.	.	1g	.	1G	Et	2b/	eſt
.	.	.	.	.	.	2.dd/	no-
*	*	*	*	*lig	*	*	*
.	.	1f	.	1d	fi-	.	.
.	.	.	.	.	.	4cc/	.
.	.	.	.	.	.	4b/	.
.	.	.	.	.	.	4a/	.
=7-	=7-	=7-	=7-	=7-	=7-	=7-	=7-
1C	Et	2e\	-tus	1e	.	2g/	.
.	.	2.g\	est	.	.	1cc	.
*lig	*	*	*	*Xlig	*	*	*
1G	fi-	.	.	1d	.	.	.
.	.	4e/	.	.	.	.	.
.	.	2f\	.	.	.	2b/	.
=8-	=8-	=8-	=8-	=8-	=8-	=8-	=8-
1A	.	2e/	.	2c/	-li-	1cc	-bis
.	.	2c/	.	4B/	.	.	.
.	.	.	.	4A/	.	.	.
*Xlig	*	*	*	*	*	*	*
1G	.	2d/	.	1B	-us	2r	.
*	*	*	*	*	*	*custos:g	*
!	!	!	!	!	!	!LO:LB:g=original	!
.	.	2e/	.	.	.	2g/	no-
=9-	=9-	=9-	=9-	=9-	=9-	=9-	=9-
2F/	-li-	1f	.	1A	da-	2a/	.
4E/	.	.	.	.	.	2f/	.
4D/	.	.	.	.	.	.	.
1E	.	1e	no-	1c	-tus	1g	.
=10-	=10-	=10-	=10-	=10-	=10-	=10-	=10-
1D	-us	1A	-bis	1d	est	2f/	.
*	*	*	*	*	*	*2\right	*
.	.	.	.	.	.	2.a\	.
2r	.	2r	.	1c	no-	.	.
.	.	.	.	.	.	4b\	.
2F/	da-	2A/	.	.	.	2cc\	.
=11-	=11-	=11-	=11-	=11-	=11-	=11-	=11-
*	*	*	*	*lig	*	*	*
2G/	.	2B/	.	1G	-bis	2b\	.
2E/	-tus	2c/	.	.	.	1g	.
*	*	*custos:d	*	*	*	*	*
!	!	!LO:LB:g=original	!	!	!	!	!
1D	est	1d	.	1A	.	.	.
.	.	.	.	.	.	2f/	.
=12-	=12-	=12-	=12-	=12-	=12-	=12-	=12-
0r	.	1r	.	0G	.	0g	-bis
.	.	2r	.	.	.	.	.
.	.	2G/	Cu-	.	.	.	.
*	*	*	*	*Xlig	*	*	*
=13-	=13-	=13-	=13-	=13-	=13-	=13-	=13-
2r	.	2.G/	-ius	0r	.	2r	.
2G/	no-	.	.	.	.	2g/	cu-
.	.	4A/	.	.	.	.	.
2E/	.	2B/	.	.	.	2.g/	-ius
2C/	.	2c/	im-	.	.	.	.
.	.	.	.	.	.	4a/	.
=14-	=14-	=14-	=14-	=14-	=14-	=14-	=14-
2G/	.	2d/	-pe-	2r	.	2b\	im-
2C/	.	2e\	.	2c/	cu-	2cc\	-pe-
1F	.	1f	.	2.c/	-ius	1a	.
.	.	.	.	4d/	.	.	.
*custos:E	*	*	*	*custos:e	*	*	*
!LO:LB:g=original	!	!	!	!LO:LB:g=original	!	!	!
=15-	=15-	=15-	=15-	=15-	=15-	=15-	=15-
*	*	*	*	*2\right	*	*	*
2E/	.	2g\	.	2e\	.	2g/	.
*2\right	*	*	*	*	*	*	*
2A\	.	2f\	-ri-	2f\	im-	1cc	.
1G	-bis	1g	-u(m)	2d/	-pe-	.	.
.	.	.	.	2d/	-ri-	2b\	-ri-
=16-	=16-	=16-	=16-	=16-	=16-	=16-	=16-
2r	.	2r	.	0c	-um	0cc	-um
2C/	.	2G/	ſu-	.	.	.	.
2.C/	.	2A/	.	.	.	.	.
*	*	*lig	*	*	*	*	*
.	.	1G/	.	.	.	.	.
4D/	.	.	.	.	.	.	.
=17-	=17-	=17-	=17-	=17-	=17-	=17-	=17-
2E/	.	.	.	00r	.	0r	.
2F/	.	1c	.	.	.	.	.
2D/	.	.	.	.	.	.	.
*	*	*Xlig	*	*	*	*	*
2D/	.	2B/	.	.	.	.	.
=18-	=18-	=18-	=18-	=18-	=18-	=18-	=18-
1C	.	2.c/	.	.	.	1r	.
.	.	4d/	.	.	.	.	.
2r	.	2.e/	.	.	.	1cc	Su-
1B\	.	.	.	.	.	.	.
.	.	4f\	.	.	.	.	.
=19-	=19-	=19-	=19-	=19-	=19-	=19-	=19-
.	.	1g	-per	0r	.	1cc	-per
4B\	.	.	.	.	.	.	.
4A\	.	.	.	.	.	.	.
1B	.	2r	.	.	.	1dd	hu-
.	.	2g\	hu-	.	.	.	.
=20-	=20-	=20-	=20-	=20-	=20-	=20-	=20-
2.A\	.	2.a\	-me-	1c	ſu-	2cc\	.
.	.	.	.	.	.	2.ee\	.
4B\	.	4g\	.	.	.	.	.
2c/	.	2e\	.	1c	-per	.	.
.	.	.	.	.	.	4dd\	.
2A\	.	2f\	.	.	.	1cc\	.
=21-	=21-	=21-	=21-	=21-	=21-	=21-	=21-
1G	.	1g	.	1d	hu-	.	.
.	.	.	.	.	.	2b\	-me-
1C	.	2e\	.	2c/	.	1cc	-rum
.	.	1g\	.	1e\	.	.	.
=22-	=22-	=22-	=22-	=22-	=22-	=22-	=22-
0r	.	.	.	.	.	2r	.
*	*	*	*	*	*	*custos:cc	*
!	!	!	!	!	!	!LO:LB:g=original	!
.	.	4f\	.	4d/	.	1cc	e-
.	.	4e\	.	4c/	.	.	.
*	*	*custos:f	*	*	*	*	*
!	!	!LO:LB:g=original	!	!	!	!	!
.	.	1f	-ru(m)	2d/	.	.	.
.	.	.	.	2d/	-me-	2b\	.
=23-	=23-	=23-	=23-	=23-	=23-	=23-	=23-
1F	.	1r	.	1c	-rum	1cc	.
*	*	*	*	*	*	*lig	*
1F	.	2r	.	2r	.	1a	.
.	.	1f\	e-	1c\	et	.	.
=24-	=24-	=24-	=24-	=24-	=24-	=24-	=24-
1G	.	.	.	.	.	1b	.
.	.	2e\	.	2B/	.	.	.
*	*	*	*	*	*	*Xlig	*
2F/	.	2.f\	.	1c	.	2a/	.
2.A\	.	.	.	.	.	2.cc\	.
.	.	4e\	.	.	.	.	.
=25-	=25-	=25-	=25-	=25-	=25-	=25-	=25-
*	*	*	*	*lig	*	*	*
.	.	2c/	.	1A	vo-	.	.
4G\	.	.	.	.	.	4b\	.
2F/	.	2d/	.	.	.	1a	.
2.E/	.	1e	-ius	1B	.	.	.
.	.	.	.	.	.	2g/	.
4G/	.	.	.	.	.	.	.
*	*	*	*	*Xlig	*	*	*
=26-	=26-	=26-	=26-	=26-	=26-	=26-	=26-
2.F/	.	2r	.	2A/	.	1a	-ius
.	.	2c/	et	1c	.	.	.
4A\	.	.	.	.	.	.	.
2.G\	.	1d	vo-	.	.	1r	.
.	.	.	.	2B/	.	.	.
4B\	.	.	.	.	.	.	.
*custos:A	*	*	*	*	*	*	*
!LO:LB:g=original	!	!	!	!	!	!	!
=27-	=27-	=27-	=27-	=27-	=27-	=27-	=27-
2A\	.	2e/	-ca-	2c/	-ca-	2r	.
2c\	.	2c/	-bi-	2e\	.	1cc	et
1G	.	1g	-t(ur)	2d\	.	.	.
.	.	.	.	2d\	-bi-	2b\	vo-
=28-	=28-	=28-	=28-	=28-	=28-	=28-	=28-
2r	.	2r	.	1c	-tur	2cc\	-ca-
1C	.	2e\	.	.	.	2ee\	-bi-
.	.	1f	.	1r	.	1dd	.
2BB/	.	.	.	.	.	.	.
=29-	=29-	=29-	=29-	=29-	=29-	=29-	=29-
2.C/	.	1e	.	1c	no-	2cc/	-tur
.	.	.	.	.	.	1g	no-
4D/	.	.	.	.	.	.	.
2E/	.	2r	.	1c	-men	.	.
2F/	.	2c/	no-	.	.	2a/	.
=30-	=30-	=30-	=30-	=30-	=30-	=30-	=30-
*	*	*	*	*lig	*	*	*
2D/	.	2.e/	-men	1d	e-	2g/	.
2C/	.	.	.	.	.	1cc	.
.	.	4f\	.	.	.	.	.
1G	.	1g	.	1e	.	.	.
.	.	.	.	.	.	2b\	.
*	*	*	*	*Xlig	*	*	*
*	*	*	*	*custos:c	*	*	*
!	!	!	!	!LO:LB:g=original	!	!	!
=31-	=31-	=31-	=31-	=31-	=31-	=31-	=31-
*	*	*lig	*	*	*	*	*
1C	.	1G	e-	00c	-ius	1.cc	-mens
1r	.	1A	.	.	.	.	.
.	.	.	.	.	.	4b\	e-
.	.	.	.	.	.	4a\	.
*	*	*Xlig	*	*	*	*	*
=32-	=32-	=32-	=32-	=32-	=32-	=32-	=32-
1F	.	2.F/	-ius	.	.	0a	-ius
.	.	4G/	.	.	.	.	.
1F	.	4A/	.	.	.	.	.
.	.	4B/	.	.	.	.	.
.	.	2c/	.	.	.	.	.
=33-	=33-	=33-	=33-	=33-	=33-	=33-	=33-
*lig	*	*	*	*	*	*	*
1F	.	2F/	.	0r	.	0r	.
*	*	*custos:f	*	*	*	*	*
!	!	!LO:LB:g=original	!	!	!	!	!
.	.	1f	.	.	.	.	.
1G	.	.	.	.	.	.	.
.	.	2e\	.	.	.	.	.
*Xlig	*	*	*	*	*	*	*
=34-	=34-	=34-	=34-	=34-	=34-	=34-	=34-
2.F/	.	2f\	.	1r	.	2.a/	ma-
.	.	4e\	.	.	.	.	.
4G/	.	4d\	.	.	.	4b\	.
4A\	.	1c	.	2r	.	4cc\	.
4B\	.	.	.	.	.	4dd\	.
2c\	.	.	.	2A/	mag-	1ee\	.
=35-	=35-	=35-	=35-	=35-	=35-	=35-	=35-
2A\	.	0r	.	2c/	.	.	.
2B-X\	.	.	.	2d\	.	1dd	.
1A	.	.	.	1e	.	.	.
.	.	.	.	.	.	2cc\	.
=36-	=36-	=36-	=36-	=36-	=36-	=36-	=36-
1D	.	2.d/	ma-	0d	-ni	1dd	-gni
.	.	4e\	.	.	.	.	.
*	*	*	*	*	*	*custos:dd	*
!	!	!	!	!	!	!LO:LB:g=original	!
2r	.	4f\	.	.	.	2dd\	.
.	.	4g\	.	.	.	.	.
2D/	.	1a\	.	.	.	4cc\	.
.	.	.	.	.	.	4b\	.
=37-	=37-	=37-	=37-	=37-	=37-	=37-	=37-
2F/	.	.	.	0r	.	2a\	.
2G/	.	1g	.	.	.	2b\	.
1A	.	.	.	.	.	1cc	.
.	.	2f\	.	.	.	.	.
*custos:G	*	*	*	*	*	*	*
!LO:LB:g=original	!	!	!	!	!	!	!
=38-	=38-	=38-	=38-	=38-	=38-	=38-	=38-
1.G	.	2g\	.	1r	.	1b	.
.	.	2d/	.	.	.	.	.
.	.	2B/	.	1G	con-	2r	.
4F/	.	2c/	.	.	.	2g/	con-
4E/	.	.	.	.	.	.	.
=39-	=39-	=39-	=39-	=39-	=39-	=39-	=39-
1D	.	1d	.	2.A/	-ſi-	2f/	.
.	.	.	.	.	.	2d/	.
.	.	.	.	4B/	.	.	.
1C	.	1G	-gni	2c/	.	2.e/	-ſi-
.	.	.	.	1c\	-lij	.	.
.	.	.	.	.	.	4f/	.
=40-	=40-	=40-	=40-	=40-	=40-	=40-	=40-
2r	.	1r	.	.	.	2g/	.
2C/	.	.	.	4B/	.	1a	.
.	.	.	.	4A/	.	.	.
2D/	.	2r	.	1B	.	.	.
2E/	.	2g\	con-	.	.	2g/	.
=41-	=41-	=41-	=41-	=41-	=41-	=41-	=41-
2F/	.	2f\	.	0A	.	0a	-lij
1F	.	4e/	.	.	.	.	.
.	.	4d/	.	.	.	.	.
.	.	2c/	.	.	.	.	.
4E/	.	1d\	-ſi-	.	.	.	.
4D/	.	.	.	.	.	.	.
=42-	=42-	=42-	=42-	=42-	=42-	=42-	=42-
1E	.	.	.	0r	.	0r	.
.	.	2c/	.	.	.	.	.
1D	.	1d	-lij	.	.	.	.
=43-	=43-	=43-	=43-	=43-	=43-	=43-	=43-
*	*	*	*	*lig	*	*	*
00r	.	2r	.	1d	An-	2r	.
*	*	*	*	*	*	*lig	*
.	.	2.f\	.	.	.	1a	con-
.	.	.	.	1f	.	.	.
.	.	4g\	.	.	.	.	.
.	.	2a\	.	.	.	1cc\	.
*	*	*custos:g	*	*Xlig	*	*Xlig	*
!	!	!LO:PB:g=original	!	!	!	!	!
=44-	=44-	=44-	=44-	=44-	=44-	=44-	=44-
.	.	2g\	.	2e\	.	.	.
.	.	4f/	.	2d\	.	2b\	.
.	.	4e/	.	.	.	.	.
.	.	4d/	.	1f	-ge-	2a/	.
.	.	4c/	.	.	.	.	.
.	.	2B/	.	.	.	1dd\	-ſi-
=45-	=45-	=45-	=45-	=45-	=45-	=45-	=45-
*	*	*	*	*lig	*	*	*
0r	.	2c/	.	1c	.	.	.
.	.	2A/	.	.	.	1cc	.
.	.	1G	.	1d	.	.	.
.	.	.	.	.	.	2b\	.
*	*	*	*	*Xlig	*	*	*
=46-	=46-	=46-	=46-	=46-	=46-	=46-	=46-
1r	.	1A	.	1c	-lus	1cc	-lij
*lig	*	*	*	*	*	*	*
1D	.	2r	.	1r	.	1a	.
*	*	*lig	*	*	*	*	*
.	.	1A/	An-	.	.	.	.
=47-	=47-	=47-	=47-	=47-	=47-	=47-	=47-
1F	.	.	.	00r	.	0r	.
.	.	1c	.	.	.	.	.
*Xlig	*	*Xlig	*	*	*	*	*
2E/	.	.	.	.	.	.	.
2D/	.	2B/	.	.	.	.	.
=48-	=48-	=48-	=48-	=48-	=48-	=48-	=48-
1F	.	2A/	.	.	.	1r	.
.	.	2.d\	-ge-	.	.	.	.
*lig	*	*	*	*	*	*	*
1C	.	.	.	.	.	2r	.
.	.	4e/	.	.	.	.	.
.	.	2c/	.	.	.	2g/	An-
=49-	=49-	=49-	=49-	=49-	=49-	=49-	=49-
*	*	*	*	*lig	*	*	*
1D	.	2A/	.	1A	an-	2f/	.
.	.	2F/	.	.	.	2d/	.
*Xlig	*	*	*	*	*	*	*
2.C/	.	2G/	.	1c	.	2.e/	.
.	.	2g\	.	.	.	.	.
4D/	.	.	.	.	.	4f/	.
*	*	*	*	*Xlig	*	*	*
=50-	=50-	=50-	=50-	=50-	=50-	=50-	=50-
2E/	.	2e/	.	2B/	.	2g/	.
2.F/	.	2c/	.	2A/	.	2.a/	.
.	.	2f\	.	1c	-ge-	.	.
4E/	.	.	.	.	.	4b/	.
*	*	*	*	*	*	*custos:cc	*
!	!	!	!	!	!	!LO:LB:g=original	!
2C/	.	2e\	.	.	.	2cc\	.
*	*	*	*	*custos:G	*	*	*
!	!	!	!	!LO:LB:g=original	!	!	!
=51-	=51-	=51-	=51-	=51-	=51-	=51-	=51-
*	*	*	*	*lig	*	*	*
2G\	.	2d\	.	1G	.	2b\	.
2E/	.	2c/	.	.	.	1g	.
1D	.	1d	.	1A	.	.	.
.	.	.	.	.	.	2f/	-ge-
*	*	*	*	*Xlig	*	*	*
=52-	=52-	=52-	=52-	=52-	=52-	=52-	=52-
0Gl	.	0dl	-lus	0Gl	-lus	0gl	-lus
*custos:D	*	*	*	*	*	*	*
!LO:LB:g=original	!	!LO:LB:g=original	!	!	!	!	!
=53||	=53||	=53||	=53||	=53||	=53||	=53||	=53||
*lig	*	*	*	*lig	*	*	*
!	!	!	!	!	!	!LO:TX:b:t=Cantate	!
1D	Qu-	1r	.	1d	Qu-	0dd	Qu-
*	*	*lig	*	*	*	*	*
1G	.	1g	Qu-	1B	.	.	.
*Xlig	*	*	*	*Xlig	*	*	*
=54-	=54-	=54-	=54-	=54-	=54-	=54-	=54-
*	*	*	*	*lig	*	*	*
1A	-ia	1e	.	1c	-ia	1cc	-ia
*	*	*Xlig	*	*	*	*	*
*	*	*lig	*	*	*	*	*
1D	.	1f	-ia	1d	.	1a	.
*	*	*	*	*Xlig	*	*	*
=55-	=55-	=55-	=55-	=55-	=55-	=55-	=55-
2G\	mi-	1g	.	2d\	mi-	0b	mi-
2G\	-ra-	.	.	2d\	-ra-	.	.
*	*	*Xlig	*	*	*	*	*
2G\	-bi-	2g\	mi-	2d\	-bi-	.	.
2G\	-li-	2g\	-ra-	2e\	.	.	.
=56-	=56-	=56-	=56-	=56-	=56-	=56-	=56-
1F	-a	1c	-bi-	1f	.	1a	-ra-
2r	.	2g\	-li-	2e\	-li-	2g/	-bi-
2F\	fe-	2a\	.	2f\	-a	1cc\	-li-
=57-	=57-	=57-	=57-	=57-	=57-	=57-	=57-
1G	.	2.g\	-a	1d	.	.	.
.	.	.	.	.	.	2b\	.
.	.	4f\	.	.	.	.	.
2A\	.	4e\	.	1c	.	2cc\	-a
.	.	4d\	.	.	.	.	.
2F/	.	2f\	.	.	.	2.a/	.
=58-	=58-	=58-	=58-	=58-	=58-	=58-	=58-
2G\	.	2d\	.	2B/	.	.	.
.	.	.	.	.	.	4g/	.
2C/	.	2e\	fe-	2c/	fe-	1g	Fe-
1D	.	1d	.	1A	.	.	.
.	.	.	.	.	.	2f/	.
=59-	=59-	=59-	=59-	=59-	=59-	=59-	=59-
0Gl	-cit	0d	-cit	0G;	-cit	0gl	-cit
==	==	==	==	==	==	==	==
*-	*-	*-	*-	*-	*-	*-	*-
!!!system-decoration: [(*)]
!!!RDF**kern: < = below
!!!RDF**kern: l = terminal long
!!!ENC: Filip Voros
!!!END: 2022-01-14
!!!ENC: Andrzej Kubiczek
!!!END: 2022-01-21
